X:0021
T:The Campbell's are coming.
M:6/8
L:1/8
Q:3/8=112
I: :: ::
Z:Jack Campin * www.campin.me.uk * 2009
K:G
G|B2e dBG|A>BA A2G|B2e  dBG|d>BB TB2
A|B2e dBG|A>BA g2a|g>eg dBG|B>cB  B2:|
G|g2g gab|d>ed dBG|g2g  gab|g>ee  e2
d|def gfe|def g>ab|g>eg dBG|B>cB  B2:|
<end>
<start>
